X:1
T:Title
%%score ( 1 2 ) 3
L:1/8
Q:1/4=100
M:4/4
K:Ab
V:1 treble nm="Grand Piano, Soprano"
V:2 treble 
V:3 bass nm="Choir Pad, Christ the Lord Is Born"
V:1
 [Ac][Ac][Ac][Ac] [Gc]2 [Gc]2 | [Fc]2 [Gc]2 [Fc]2 [Ec]2 | EFGA B2 A2 | G6 z2 | %4
w: By~Ira~Bishop~Wilson * * * * *||||
 [Bd][Bd][Bd][Bd] [Ad]2 [Ad]2 | [Gd]2 [Ad]2 [Gd]2 [Fd]2 | EFGA B2 _c2 | c6 z2 | %8
w: ||||
 [Ac][Ac][Ac][Ac] [Gc]2 [Gc]2 | [Fc]2 [Gc]2 [Fc]2 [Ec]2 | EFGA [FB]2 [Fd]2 | [=Ec]6 z2 | %12
w: ||||
 [EFd]2 [EFd]2 =EFEF | [=DFc]2 [DFB]2 =EFEF | [=DA]2 [DA]2 [DG]2 [DF]2 | z2 G2 A2 [GB]2 | c4 c4 | %17
w: |||||
 c6 z2 | [CE]2 [B,C=E]2 [A,CF]2 [FAd]2 | c8 | d4 G4 | A6 z2 | F2 [=DB]2 [DB]2 [DF]2 | %23
w: ||||||
 A2 [DG]2 [DF]2 [DE]2 | c4 c4 | c6 z2 | [CE]2 [B,C=E]2 [A,CF]2 [FGd]2 | c8 | [EFd]2 [EFc]2 =EFEF | %29
w: ||||||
 [=DFc]2 [DFB]2 =EFEF | G2 [Fd]2 [Ec]2 [DB]2 | [CA]8 |] %32
w: |||
V:2
 x8 | x8 | x8 | x8 | x8 | x8 | x8 | x8 | x8 | x8 | x8 | x8 | x8 | x8 | x8 | E4 z4 | %16
 z2 [EA]2 z2 [EA]2 | z2 [EA]2 [EA]2 [A,C]>[B,D] | x8 | z2 [EA][EA] z2 [EA]2 | z2 [EB]2 z2 [DE]2 | %21
 z2 [CF]2 [CF]2 c>A | x8 | x8 | z2 [EA]2 z2 [EA]2 | z2 [EA]2 [EA]2 [A,C]>[B,D] | x8 | %27
 z2 [=EG][EG] z2 [EG]2 | x8 | x8 | x8 | x8 |] %32
V:3
 A,,2 [E,A,C]2 G,,2 [E,A,C]2 | A,,2 [E,A,C]2 E,,2 [E,A,C]2 | A,,2 [E,A,C]2 C,2 _C,2 | %3
 B,,2 [E,G,D][E,G,D] [E,G,D]2 [E,G,D]2 | B,,2 [E,G,D]2 E,,2 [E,G,D]2 | %5
 B,,2 [E,G,D]2 E,,2 [E,G,D]2 | G,,2 [E,G,D]2 E,,2 [E,G,D]2 | %7
 A,,2 [E,A,C][E,A,C] [E,A,C]2 [E,A,C]2 | A,,2 [E,A,C]2 E,,2 [E,A,C]2 | %9
 A,,2 [E,A,C]2 E,,2 [E,A,C]2 | A,,2 [E,A,C]2 D,2 B,,2 | C,2 [G,B,C][G,B,C] [G,B,C]2 [G,B,C]2 | %12
 =A,,2 [F,=A,]2 z4 | B,,2 [F,A,B,]2 z4 | B,,2 F,2 B,2 A,2 | [E,G,]2 [D,D]2 [C,C]2 [B,,B,]2 | %16
 [A,,A,]4 [E,,E,]4 | [A,,A,]6 z2 | A,2 G,2 F,2 D,2 | A,,4 E,,4 | G,,4 E,,4 | F,,6 z2 | %22
 =D,2 [F,A,B,]2 B,,2 [F,A,B,]2 | E,,2 [E,B,]2 [F,B,]2 [G,B,]2 | [A,,A,]4 [E,,E,]4 | [A,,A,]6 z2 | %26
 A,2 G,2 F,2 B,,2 | C,4 C,,4 | =A,,2 [F,=A,]2 z4 | B,,2 [F,A,B,]2 z4 | E,,2 E,2 [E,F,]2 [E,G,]2 | %31
 [A,,E,A,]2 E,2 A,,4 |] %32

